X: 21
T: the Looking Glass
R: reel
M: C|
L: 1/8
Z: 2011 John Chambers <jc:trillian.mit.edu>
B: William Randall eds "Twenty Four Country Dances", London 1771, p.13
K: F
|:\
FAcf agfe | fdcB BAGF | DFBF EGcb | afga g2c2 |
FAcf afga | gfg=B {c}B2AG | AcfA =Bdgf | edc=B c2C2 :|
|:\
cdef gedc | bagf {f}e2d^c | dAdf eAeg | fed^c d4 |
fef=c dBAB | g^fgd ec=Bc | fdc_B AcFA | BGFE F2F2 :|
% - - - - - - - - - - - - - - - - - - - - - - - - -
%%begintext align
%% Foot it all 4 and change Places the same Back
%% again cast off 2 Cu. lead up to the top cast off
%% Hands 6 round half way Back again lead thro
%% the Bottom cast off Right and Left at top
%%endtext
% - - - - - - - - - - - - - - - - - - - - - - - - -

%%sep 1 1 500
%%sep 1 1 500
